X:4087
T:Mazurca Uacia - ch'al - pianz (Enzo Conti)
O:england
C:Tre Martelli: Brüzè Carvè
C:ABABCBCB
M:3/4
L:1/8
K:G
dc BA GA|B6|cB A2 G2|F2 D4|\
CE GC EG|F2 D2 D2|CE G2 F2|G2 G2 z2:|
K:C
|:e3 B cd|e3 B cd|de dc BA|A2 G2 G2|\
e2 eB cd|e2 eB cd|de dc Bd|c2 c2 z2:|
K:G
|:B4 c2|d6|A4 B2|c6|\
e4 A2|d4 G2|A2 Bc BA|G2 G2 z2:|


